src/lib/runemarks/svg/weapons-axe.svg

<svg xmlns="http://www.w3.org/2000/svg" width="300" height="300" viewBox="0 0 300 300"><title>weapons-axe</title><path d="M153.9 218.691q-8.226-.591-14.4-3.234c-1.575-.778-4.219-1.369-7.941-1.762h-.591c-.197-.197-.534-.291-1.031-.291h-1.031l-1.763-.591c-1.959-.778-3.047-1.472-3.234-2.063-.788-1.172-1.566-3.131-2.353-5.878l-.591-1.762c0-.394.291-.881.881-1.472l.291-.291q5.287-8.521 12.938-17.634l17.934-22.05c1.959-2.353 4.219-5.588 6.759-9.703a133 133 0 0 1 4.997-9.113c.984-1.378 1.425-2.747 1.322-4.116s.534-2.063 1.913-2.063h.591c.591 0 1.078.094 1.472.291s.591.637.591 1.322.197 1.125.591 1.322 1.078.291 2.063.291c2.747.197 5.437-.591 8.081-2.353s4.556-4.313 5.728-7.641q2.351-6.469 2.353-12.347c.394-6.666-2.259-11.372-7.941-14.109-1.172-.591-2.541-1.763-4.116-3.525l-2.063-2.063c-.984-.591-2.447-1.369-4.406-2.353l-3.234-1.763c-1.959-.984-4.613-2.841-7.941-5.588l-2.944-2.353c-1.378-1.172-3.431-3.037-6.169-5.588-1.959-1.959-3.478-3.534-4.556-4.706s-2.203-1.856-3.384-2.063c-1.763-.197-3.131 0-4.116.591s-1.669 1.763-2.063 3.525c-.778 2.747-2.353 4.5-4.706 5.287l-1.763-1.763c-2.934-2.747-4.8-5.091-5.588-7.059-.394-1.172-1.669-2.841-3.825-4.997-1.172-1.172-1.959-2.053-2.353-2.644l-1.763-2.353c-5.878-8.428-10.584-14.503-14.109-18.225-2.156-2.353-5.194-6.075-9.112-11.175s-7.05-8.822-9.403-11.175l-3.525-4.406q-3.53-4.12-5.287-5.878c-.591-.591-.684-1.472-.291-2.644q.593-.886 1.763 0l5.588 1.762c4.313 1.172 7.444 2.25 9.403 3.234 0 .197.094.291.291.291 2.156-.394 5.1 0 8.822 1.172 2.934.778 5.091 1.172 6.469 1.172.591 0 1.472.094 2.644.291l.591.291c2.353.984 6.178 1.959 11.466 2.944 4.509.787 7.838 1.566 9.994 2.353.984.394 2.447.684 4.406.881 2.747.591 4.65 1.228 5.728 1.913s2.794 1.078 5.147 1.172 4.022.337 4.997.731c2.747 1.172 6.563 1.566 11.466 1.172h.591q2.055 0 2.944.591l.291.591c.591.394.591.788 0 1.172-1.172.778-1.762 1.566-1.762 2.353s.291 1.866.881 3.234q.886 2.053.731 3.234c-.155 1.181.291 1.575 1.172 2.353.881.787 1.903 1.369 3.084 1.762s2.55 1.369 4.116 2.944l1.762 1.762c5.681 5.288 10.584 9.019 14.7 11.175 1.575.787 3.919 2.156 7.059 4.116 4.313 2.747 7.547 4.603 9.703 5.588 1.566.591 3.722 1.763 6.469 3.525l3.525 2.063c1.762.984 3.281 1.322 4.556 1.031s2.597-1.125 3.966-2.503c2.934-2.747 4.603-6.469 4.997-11.166v-5.588c0-.984.347-1.669 1.031-2.062s1.425-.244 2.203.441c.787.684 2.062 1.622 3.825 2.794s3.047 2.156 3.825 2.944c1.575 1.172 3.919 2.747 7.059 4.706 2.55 1.566 4.416 2.747 5.588 3.525 1.959 1.369 4.95 3.131 8.962 5.287s6.9 3.863 8.672 5.147 4.322 3.094 7.641 5.438l5.587 3.825 1.762 2.063c.984 1.575 1.856 2.55 2.644 2.944l7.059 5.878c.778.787 1.369 1.275 1.762 1.472-.591 1.763-1.322 3.038-2.203 3.825s-2.203 1.078-3.966.881c-1.762-.197-3.431.291-4.997 1.472q-1.758 1.181-3.825 3.825c-1.762 2.353-4.8 5.484-9.113 9.403-3.141 3.141-7.547 8.034-13.228 14.7l-5.288 6.169c-1.959 1.959-4.322 5.391-7.059 10.284l-3.234 5.878c-2.55 3.919-4.706 6.666-6.469 8.231-.984.778-2.063 2.156-3.234 4.116-.984 1.566-1.856 2.747-2.644 3.525a1370 1370 0 0 1-29.1 29.981c-1.369 1.172-3.534 2.55-6.469 4.116-2.353 1.172-4.069 2.109-5.147 2.794s-2.597 1.425-4.556 2.203q-4.12 1.758-5.878 3.234c-.778.394-1.959.684-3.525.881-1.172 0-2.053.094-2.644.291-5.287 1.369-12.741 1.866-22.341 1.472-.778-.197-1.172-.591-1.172-1.172.394-.197.881-.291 1.472-.291h1.472c.984-.591 1.519-1.125 1.613-1.612s-.253-1.022-1.031-1.613c-.787-.591-1.622-.488-2.503.291s-1.228 1.856-1.031 3.234zm28.219-145.51q.591-2.054 0-3.825c-.394-.778-1.087-1.959-2.062-3.525l-1.172-1.763c-.778-.984-1.472-1.519-2.063-1.612s-1.669.047-3.234.441c-1.959.778-3.487 1.275-4.556 1.472s-1.856.591-2.353 1.172-.938 1.463-1.322 2.644l-.591 1.472c-.591 1.762-.684 3.037-.291 3.825l1.172 2.353q1.758 3.825 3.825 5.147c2.067 1.322 2.7 1.425 3.966 1.612s2.4-.103 3.384-.881l.591-.291q2.939-2.067 3.825-3.234 1.474-2.35.881-4.997zm58.209-2.343c0-.778-.3-1.275-.881-1.472-1.378-.394-2.156-.103-2.353.881-.197.394-.197.741 0 1.031s.487.441.881.441c1.378 0 2.156-.291 2.353-.881m54.384 31.743c0-.787-.291-1.219-.881-1.322s-1.275.244-2.063 1.031l-.291.291c-.197.591.197.881 1.172.881h.591q1.474.002 1.472-.881M152.728 60.834c.591 0 .881-.103.881-.291a5.4 5.4 0 0 0-1.472-1.472l-.291.291c-.394.984-.103 1.472.881 1.472zm27.928 83.485q-.591 0-.591.591l.291 1.172c.591 0 .881-.394.881-1.172zM10.453 253.087c0-1.378.488-2.55 1.472-3.525.591-.591 1.575-1.275 2.944-2.062q7.355-5.287 11.756-9.703c1.762-1.762 4.022-4.603 6.759-8.522l1.172-1.472c1.959-2.156 3.431-3.722 4.406-4.706l1.762-1.762c2.156-2.353 3.525-4.209 4.116-5.588q1.181-2.94 5.878-7.059c1.369-1.172 3.038-3.234 4.997-6.169 1.762-2.55 3.234-4.416 4.406-5.588 1.575-1.762 3.722-4.5 6.469-8.231 3.328-4.509 5.878-7.744 7.641-9.703l2.053-2.353q12.345-13.824 17.053-21.459v-.591c2.156-2.156 4.856-5.681 8.081-10.584s5.831-8.325 7.791-10.284c1.172-1.378 2.644-3.731 4.406-7.059l1.763-3.234q3.234-5.583 11.166-15.581l3.234-4.116c3.525-4.903 7.153-8.916 10.875-12.056.778-.778 1.763-2.156 2.944-4.116l.881.291c1.172.197 1.959.487 2.353.881 1.566 1.575 4.313 3.628 8.231 6.169 2.747 1.566 4.706 2.794 5.878 3.675s2.597 2.306 4.266 4.266q2.504 2.939 3.825 3.966c1.321 1.027 1.275 1.219 1.172 1.612-.103.394-.638.891-1.613 1.472l-1.472.591c-.787 1.959-2.541 4.509-5.287 7.641s-4.603 5.681-5.588 7.641c-1.566 3.141-4.406 7.35-8.522 12.638l-2.644 3.234c-.591.787-1.566 1.856-2.944 3.234l-1.762 2.063-3.525 4.406c-5.484 6.469-9.403 11.372-11.756 14.7l-.591.591c-3.141 4.509-5.784 7.453-7.941 8.822l-2.944 2.944-4.706 6.469c-4.706 6.853-8.531 11.653-11.466 14.4-1.959 3.525-5.297 8.625-9.994 15.291-3.722 5.091-6.375 9.009-7.941 11.756q-1.474 2.643-4.706 7.791c-3.232 5.148-3.722 6.028-4.706 7.791l-3.234 5.587c-3.919 6.666-6.563 11.756-7.941 15.291q-.886 2.644-3.234 7.059c-2.747 5.681-4.312 10.088-4.706 13.228-.984.984-1.856 2.747-2.644 5.288-.394 1.959-.881 3.328-1.472 4.116-.778 1.566-1.472 2.747-2.062 3.525-2.156 1.762-4.013 1.856-5.587.291-2.156-2.156-5.981-4.8-11.466-7.941-2.944-1.762-5.091-3.131-6.469-4.116l-1.472-.881c-1.566-.984-2.747-1.866-3.525-2.644-1.378-1.378-3.628-3.431-6.759-6.169-3.525-2.747-6.028-4.95-7.5-6.619s-2.166-3.384-2.063-5.147c.103-1.762.938-3.328 2.503-4.706 1.378-1.762 2.456-2.944 3.234-3.525 1.378-1.172 2.944-1.669 4.706-1.472.394.778.684 1.172.881 1.172.787 0 1.172-.094 1.172-.291.197-.591-.103-.881-.881-.881-.197-.197-.488-.197-.881 0h-.291zm33.506 26.166q-3.825 4.401-3.825 5.878c0 1.477.103 1.566.291 1.762.197.197.487.338.881.441s.684.047.881-.15c.778-.188 1.472-.581 2.063-1.172s.984-1.275 1.172-2.063c1.172-1.959.684-3.534-1.472-4.706zM212.991 54.666h-1.762c-1.566 0-2.597.197-3.084.591s-.638 1.369-.441 2.944l.291.591c.197.591.047 1.125-.441 1.612s-1.219.441-2.203-.15-2.353-1.275-4.116-2.063q-5.287-2.643-7.059-5.288c-1.575-.394-3.038-1.275-4.406-2.644-.787-.778-1.856-2.053-3.234-3.825q-3.516-4.401-5.878-5.878c-.984-.591-1.078-1.275-.291-2.063l5.287-6.469c1.566-1.566 3.178-2.259 4.847-2.063s3.675-.497 6.028-2.063l.591-.591q9.113-5.879 26.747-18.225l.291-.291c1.172-.778 1.959-1.369 2.353-1.763.778-.778 1.172-1.762 1.172-2.944s.347-1.669 1.031-1.472c.684.206 1.275.544 1.762 1.031s.638.975.441 1.472-.384 1.228-.591 2.203-.497 1.763-.881 2.353c-1.566 2.156-3.234 5.681-4.997 10.584a379 379 0 0 1-2.644 6.469 57 57 0 0 0-3.525 7.941l-.591 1.172c-.984 3.141-1.566 5.494-1.762 7.059-.394 2.747 0 5.194 1.172 7.35v.591c0 1.959-.197 3.141-.591 3.525s-1.575.487-3.525.291z"/></svg>

<?xml version="1.0" encoding="UTF-8" standalone="no"?>
<!DOCTYPE svg PUBLIC "-//W3C//DTD SVG 1.1//EN" "http://www.w3.org/Graphics/SVG/1.1/DTD/svg11.dtd">
<svg width="100%" height="100%" viewBox="0 0 300 300" version="1.1" xmlns="http://www.w3.org/2000/svg" xmlns:xlink="http://www.w3.org/1999/xlink" xml:space="preserve" xmlns:serif="http://www.serif.com/" style="fill-rule:evenodd;clip-rule:evenodd;stroke-linejoin:round;stroke-miterlimit:2;">
    <path d="M153.9,218.691C148.416,218.297 143.616,217.219 139.5,215.457C137.925,214.679 135.281,214.088 131.559,213.695L130.968,213.695C130.771,213.498 130.434,213.404 129.937,213.404L128.906,213.404L127.143,212.813C125.184,212.035 124.096,211.341 123.909,210.75C123.121,209.578 122.343,207.619 121.556,204.872L120.965,203.11C120.965,202.716 121.256,202.229 121.846,201.638L122.137,201.347C125.662,195.666 129.974,189.788 135.075,183.713L153.009,161.663C154.968,159.31 157.228,156.075 159.768,151.96C161.314,148.858 162.981,145.818 164.765,142.847C165.749,141.469 166.19,140.1 166.087,138.731C165.984,137.362 166.621,136.668 168,136.668L168.591,136.668C169.182,136.668 169.669,136.762 170.063,136.959C170.457,137.156 170.654,137.596 170.654,138.281C170.654,138.966 170.851,139.406 171.245,139.603C171.639,139.8 172.323,139.894 173.308,139.894C176.055,140.091 178.745,139.303 181.389,137.541C184.033,135.779 185.945,133.228 187.117,129.9C188.684,125.587 189.469,121.472 189.47,117.553C189.864,110.887 187.211,106.181 181.529,103.444C180.357,102.853 178.988,101.681 177.413,99.919L175.35,97.856C174.366,97.265 172.903,96.487 170.944,95.503L167.71,93.74C165.751,92.756 163.097,90.899 159.769,88.152L156.825,85.799C155.447,84.627 153.394,82.762 150.656,80.211C148.697,78.252 147.178,76.677 146.1,75.505C145.022,74.333 143.897,73.649 142.716,73.442C140.953,73.245 139.585,73.442 138.6,74.033C137.615,74.624 136.931,75.796 136.537,77.558C135.759,80.305 134.184,82.058 131.831,82.845L130.068,81.082C127.134,78.335 125.268,75.991 124.48,74.023C124.086,72.851 122.811,71.182 120.655,69.026C119.483,67.854 118.696,66.973 118.302,66.382L116.539,64.029C110.661,55.601 105.955,49.526 102.43,45.804C100.274,43.451 97.236,39.729 93.318,34.629C89.4,29.529 86.268,25.807 83.915,23.454L80.39,19.048C78.037,16.301 76.274,14.342 75.103,13.17C74.512,12.579 74.419,11.698 74.812,10.526C75.207,9.935 75.795,9.935 76.575,10.526L82.163,12.288C86.476,13.46 89.607,14.538 91.566,15.522C91.566,15.719 91.66,15.813 91.857,15.813C94.013,15.419 96.957,15.813 100.679,16.985C103.613,17.763 105.77,18.157 107.148,18.157C107.739,18.157 108.62,18.251 109.792,18.448L110.383,18.739C112.736,19.723 116.561,20.698 121.849,21.683C126.358,22.47 129.687,23.249 131.843,24.036C132.827,24.43 134.29,24.72 136.249,24.917C138.996,25.508 140.899,26.145 141.977,26.83C143.055,27.515 144.771,27.908 147.124,28.002C149.477,28.096 151.146,28.339 152.121,28.733C154.868,29.905 158.684,30.299 163.587,29.905L164.178,29.905C165.548,29.905 166.529,30.102 167.122,30.496L167.413,31.087C168.004,31.481 168.004,31.875 167.413,32.259C166.241,33.037 165.651,33.825 165.651,34.612C165.651,35.399 165.942,36.478 166.532,37.846C167.123,39.215 167.366,40.293 167.263,41.08C167.108,42.261 167.554,42.655 168.435,43.433C169.316,44.22 170.338,44.802 171.519,45.195C172.7,45.588 174.069,46.564 175.635,48.139L177.397,49.901C183.078,55.189 187.981,58.92 192.097,61.076C193.672,61.863 196.016,63.232 199.156,65.192C203.469,67.939 206.703,69.795 208.859,70.78C210.425,71.371 212.581,72.543 215.328,74.305L218.853,76.368C220.615,77.352 222.134,77.69 223.409,77.399C224.684,77.108 226.006,76.274 227.375,74.896C230.309,72.149 231.978,68.427 232.372,63.73L232.372,58.142C232.372,57.158 232.719,56.473 233.403,56.08C234.087,55.687 234.828,55.836 235.606,56.521C236.393,57.205 237.668,58.143 239.431,59.315C241.194,60.487 242.478,61.471 243.256,62.259C244.831,63.431 247.175,65.006 250.315,66.965C252.865,68.531 254.731,69.712 255.903,70.49C257.862,71.859 260.853,73.621 264.865,75.777C268.877,77.933 271.765,79.64 273.537,80.924C275.309,82.208 277.859,84.018 281.178,86.362L286.765,90.187L288.527,92.25C289.511,93.825 290.383,94.8 291.171,95.194L298.23,101.072C299.008,101.859 299.599,102.347 299.992,102.544C299.401,104.307 298.67,105.582 297.789,106.369C296.908,107.156 295.586,107.447 293.823,107.25C292.061,107.053 290.392,107.541 288.826,108.722C287.654,109.509 286.379,110.784 285.001,112.547C283.239,114.9 280.201,118.031 275.888,121.95C272.747,125.091 268.341,129.984 262.66,136.65L257.372,142.819C255.413,144.778 253.05,148.21 250.313,153.103L247.079,158.981C244.529,162.9 242.373,165.647 240.61,167.212C239.626,167.99 238.547,169.368 237.376,171.328C236.392,172.894 235.52,174.075 234.732,174.853C225.185,184.994 215.484,194.989 205.632,204.834C204.263,206.006 202.098,207.384 199.163,208.95C196.81,210.122 195.094,211.059 194.016,211.744C192.938,212.429 191.419,213.169 189.46,213.947C186.713,215.119 184.754,216.197 183.582,217.181C182.804,217.575 181.623,217.865 180.057,218.062C178.885,218.062 178.004,218.156 177.413,218.353C172.126,219.722 164.672,220.219 155.072,219.825C154.294,219.628 153.9,219.234 153.9,218.653C154.294,218.456 154.781,218.362 155.372,218.362L156.844,218.362C157.828,217.771 158.363,217.237 158.457,216.75C158.551,216.263 158.204,215.728 157.426,215.137C156.639,214.546 155.804,214.649 154.923,215.428C154.042,216.207 153.695,217.284 153.892,218.662L153.9,218.691ZM182.119,73.181C182.513,71.812 182.513,70.537 182.119,69.356C181.725,68.578 181.032,67.397 180.057,65.831L178.885,64.068C178.107,63.084 177.413,62.549 176.822,62.456C176.231,62.363 175.153,62.503 173.588,62.897C171.629,63.675 170.101,64.172 169.032,64.369C167.963,64.566 167.176,64.96 166.679,65.541C166.182,66.122 165.741,67.004 165.357,68.185L164.766,69.657C164.175,71.419 164.082,72.694 164.475,73.482L165.647,75.835C166.819,78.385 168.094,80.101 169.472,80.982C171.539,82.304 172.172,82.407 173.438,82.594C174.704,82.781 175.838,82.491 176.822,81.713L177.413,81.422C179.372,80.044 180.647,78.966 181.238,78.188C182.221,76.621 182.514,74.956 182.119,73.191L182.119,73.181ZM294.712,102.581C294.712,101.794 294.421,101.362 293.831,101.259C293.241,101.156 292.556,101.503 291.768,102.29L291.477,102.581C291.28,103.172 291.674,103.462 292.649,103.462L293.24,103.462C294.223,103.463 294.713,103.17 294.712,102.581M10.453,253.087C10.453,251.709 10.941,250.537 11.925,249.562C12.516,248.971 13.5,248.287 14.869,247.5C19.772,243.975 23.691,240.741 26.625,237.797C28.387,236.035 30.647,233.194 33.384,229.275L34.556,227.803C36.515,225.647 37.987,224.081 38.962,223.097L40.724,221.335C42.88,218.982 44.249,217.126 44.84,215.747C45.627,213.787 47.587,211.434 50.718,208.688C52.087,207.516 53.756,205.454 55.715,202.519C57.477,199.969 58.949,198.103 60.121,196.931C61.696,195.169 63.843,192.431 66.59,188.7C69.918,184.191 72.468,180.956 74.231,178.997L76.284,176.644C84.514,167.428 90.198,160.275 93.337,155.185L93.337,154.594C95.493,152.438 98.193,148.913 101.418,144.01C104.643,139.107 107.249,135.685 109.209,133.726C110.381,132.348 111.853,129.995 113.615,126.667L115.378,123.433C117.534,119.711 121.256,114.517 126.544,107.852L129.778,103.736C133.303,98.833 136.931,94.82 140.653,91.68C141.431,90.902 142.416,89.524 143.597,87.564L144.478,87.855C145.65,88.052 146.437,88.342 146.831,88.736C148.397,90.311 151.144,92.364 155.062,94.905C157.809,96.471 159.768,97.699 160.94,98.58C162.112,99.461 163.537,100.886 165.206,102.846C166.875,104.805 168.15,106.127 169.031,106.812C170.352,107.839 170.306,108.031 170.203,108.424C170.1,108.818 169.565,109.315 168.59,109.896L167.118,110.487C166.331,112.446 164.577,114.996 161.831,118.128C159.085,121.26 157.228,123.809 156.243,125.769C154.677,128.91 151.837,133.119 147.721,138.407L145.077,141.641C144.486,142.428 143.511,143.497 142.133,144.875L140.371,146.938L136.846,151.344C131.362,157.813 127.443,162.716 125.09,166.044L124.499,166.635C121.358,171.144 118.715,174.088 116.558,175.457L113.614,178.401L108.908,184.87C104.202,191.723 100.377,196.523 97.442,199.27C95.483,202.795 92.145,207.895 87.448,214.561C83.726,219.652 81.073,223.57 79.507,226.317C78.524,228.079 76.956,230.676 74.801,234.108C71.569,239.256 71.079,240.136 70.095,241.899L66.861,247.486C62.942,254.152 60.298,259.242 58.92,262.777C58.329,264.54 57.251,266.893 55.686,269.836C52.939,275.517 51.374,279.924 50.98,283.064C49.996,284.048 49.124,285.811 48.336,288.352C47.942,290.311 47.455,291.68 46.864,292.468C46.086,294.034 45.392,295.215 44.802,295.993C42.646,297.755 40.789,297.849 39.215,296.284C37.059,294.128 33.234,291.484 27.749,288.343C24.805,286.581 22.658,285.212 21.28,284.227L19.808,283.346C18.242,282.362 17.061,281.48 16.283,280.702C14.905,279.324 12.655,277.271 9.524,274.533C5.999,271.786 3.496,269.583 2.024,267.914C0.552,266.245 -0.142,264.53 -0.039,262.767C0.064,261.005 0.899,259.439 2.464,258.061C3.842,256.299 4.92,255.117 5.698,254.536C7.076,253.364 8.642,252.867 10.404,253.064C10.798,253.842 11.088,254.236 11.285,254.236C12.072,254.236 12.457,254.142 12.457,253.945C12.654,253.354 12.354,253.064 11.576,253.064C11.379,252.867 11.088,252.867 10.695,253.064L10.404,253.064L10.453,253.087ZM43.959,279.253C41.409,282.187 40.134,284.146 40.134,285.131C40.134,286.608 40.237,286.697 40.425,286.893C40.622,287.09 40.912,287.231 41.306,287.334C41.7,287.437 41.99,287.381 42.187,287.184C42.965,286.996 43.659,286.603 44.25,286.012C44.841,285.421 45.234,284.737 45.422,283.949C46.594,281.99 46.106,280.415 43.95,279.243L43.959,279.253ZM212.991,54.666L211.229,54.666C209.663,54.666 208.632,54.863 208.145,55.257C207.658,55.651 207.507,56.626 207.704,58.201L207.995,58.792C208.192,59.383 208.042,59.917 207.554,60.404C207.066,60.891 206.335,60.845 205.351,60.254C204.367,59.663 202.998,58.979 201.235,58.191C197.71,56.429 195.357,54.666 194.176,52.903C192.601,52.509 191.138,51.628 189.77,50.259C188.983,49.481 187.914,48.206 186.536,46.434C184.192,43.5 182.233,41.541 180.658,40.556C179.674,39.965 179.58,39.281 180.367,38.493L185.654,32.024C187.22,30.458 188.832,29.765 190.501,29.961C192.17,30.157 194.176,29.464 196.529,27.898L197.12,27.307C203.195,23.388 212.111,17.313 223.867,9.082L224.158,8.791C225.33,8.013 226.117,7.422 226.511,7.028C227.289,6.25 227.683,5.266 227.683,4.084C227.683,2.902 228.03,2.415 228.714,2.612C229.398,2.818 229.989,3.156 230.476,3.643C230.963,4.13 231.114,4.618 230.917,5.115C230.72,5.612 230.533,6.343 230.326,7.318C230.119,8.293 229.829,9.081 229.445,9.671C227.879,11.827 226.211,15.352 224.448,20.255C223.587,22.419 222.705,24.576 221.804,26.724C220.429,29.277 219.25,31.932 218.279,34.665L217.688,35.837C216.704,38.978 216.122,41.331 215.926,42.896C215.532,45.643 215.926,48.09 217.098,50.246L217.098,50.837C217.098,52.796 216.901,53.978 216.507,54.362C216.113,54.746 214.932,54.849 212.982,54.653L212.991,54.666Z" style="fill-rule:nonzero;"/>
</svg>
